X: 9052
T: Da Forfeit O' Da Ship
R: reel
M: 4/4
K: Dmajor
d2 AF EGFA|d2 AB dA F2|ABAF EG F2|DEFG Aeef|
d2 AF EGFA|d2 AB dA F2|ABAF EG F2|DEFG A4|
defd ceec|d2 fd adfd|gfed ce A2|eaag fe d2|
defd ceec|d2 fd adfd|gfed ce A2|eaag fe f2|

